X:1
T:Title
%%score { 1 | ( 2 3 ) }
L:1/8
M:6/4
K:F
V:1 treble nm="Grand Piano"
V:2 bass 
V:3 bass 
V:1
 z6 z4 AB | c2 =B2 c2 d2 c2 A2 | [DG]2 [DF]2 D2 F4 AB | c2 =B2 c2 d2 c2 A2 | A2 G2 F2 [EG]4 [EG]2 | %5
 [EG]2 [FA]2 [GB]2 [GB]2 [FA]2 [EG]2 | A2 B2 d2 c4 A2 | G2 A2 =B2 c2 G2 F2 | %8
[M:5/4] E2 F2 [=B,D]2 C4 |[M:1/4] [Ec]2 |[M:6/4] c3 d c2 A2 G2 F2 | [DG]2 [DF]2 D2 F4 AB | %12
 c3 =B c2 d2 c2 A2 | A2 G2 F2 [EG]4 CC | F2 F2 F2 [EG]2 [EG]2 [EG]2 |[M:7/4] A2 A2 A2 [DB]6 BB | %16
[M:6/4] =B2 B2 B2 B2 A2 G2 | c2 [Ec]2 [Fc]2 [Gc]4 [Ec][EB] | A2 G2 A2 B2 A2 B2 | %19
 c2 A2 F2 [Dd]4 [DF][^CG] | [CA]2 [Fc]2 [Fd]2 [Fc]2 [FA]2 F2 |[M:5/4] D2 F2 E2 F4 |] %22
V:2
 z6 z4 [F,CF][F,G,F] | [F,A,F]2 [F,_A,F]2 [F,=A,F]2 [F,B,F]2 [F,A,F]2 [F,CF]2 | %2
 [B,,B,]2 [B,,B,]2 [B,,F,B,]2 [F,A,C]4[K:treble] [F,CF][F,G,F] | %3
 [F,A,F]2 [F,_A,F]2 [F,=A,F]2 [F,B,F]2 [F,A,F]2 [F,CF]2 | %4
 [G,=B,F]2[K:bass] [G,B,E]2 [G,D]2 [C,C]4 [C,C]2 | [C,C]2 [C,C]2 [C,C]2 [C,C]2 [C,C]2 [C,C]2 | %6
 [F,CF]2 [F,DF]2 [F,B,F]2 [F,A,F]4 [F,CF]2 | %7
 [G,CE]2 [^F,CD]2 [=F,G,D]2 [E,G,C]2 [E,G,C]2 [F,A,C]2 |[M:5/4] [G,C]2 [G,D]2 [G,,F,]2 [C,E,]4 | %9
[M:1/4] [C,B,]2 |[M:6/4] [F,A,F]3 [F,B,F] [F,A,F]2 [F,CF]2 [F,B,C]2 [F,A,C]2 | %11
 z6 z4[K:treble] .C2 | [F,A,F]3 [F,_A,F] [F,B,F]2 [F,B,F]2 [F,=A,F]2 [F,CF]2 | %13
 [G,=B,F]2[K:bass] [G,B,E]2 [G,D]2 [C,C]4 [C,_B,][C,B,] | %14
 [F,A,C]2 [F,A,C]2 [F,A,C]2 [C,C]2 [C,C]2 [C,C]2 | %15
[M:7/4] [F,CF]2 [F,CF]2 [F,C_E]2 [B,,B,]6[K:treble] [B,DF][B,DF] | %16
[M:6/4] [G,DF]2 [G,DF]2 [G,DF]2 [G,DF]2 [A,DF]2 [=B,DF]2 | %17
 [CE]2[K:bass] [C,G,]2 [C,A,]2 [C,B,]4 [C,G,][C,C] | %18
 [F,CF]2 [B,CE]2 [A,CF]2[K:bass] [F,CE]2 [CE]2[K:treble] [B,CE]2 | %19
 [A,CF]2[K:bass] [F,CF]2 [F,A,_E]2 [B,,F,]4 [B,,B,][B,,F,] | %20
 [C,F,]2 [C,A,]2 [C,B,]2 [C,A,]2 [C,C]2 [C,A,C]2 |[M:5/4] [G,=B,]2 [G,_B,D]2 [C,B,C]2 [F,A,C]4 |] %22
V:3
 x12 | x12 | x10[K:treble] x2 | x12 | x2[K:bass] x10 | x12 | x12 | x12 |[M:5/4] x10 |[M:1/4] x2 | %10
[M:6/4] x12 | [B,,B,]2 [B,,B,]2 [B,,F,B,]2 [F,A,C]4[K:treble] [F,F]-[F,G,F] | x12 | %13
 x2[K:bass] x10 | x12 |[M:7/4] x12[K:treble] x2 |[M:6/4] x12 | x2[K:bass] x10 | %18
 x6[K:bass] x4[K:treble] x2 | x2[K:bass] x10 | x12 |[M:5/4] x10 |] %22

